packages/appstore/src/assets/svgs/wallet/usd-coin-dark.svg

<svg width="128" height="80" viewBox="0 0 128 80" fill="none" xmlns="http://www.w3.org/2000/svg">
<path d="M46.1661 33.2221H47.0401C47.2638 33.2221 47.4443 33.4026 47.4443 33.6247V41.454C47.4443 43.929 48.7849 45.4917 51.279 45.4917C53.7732 45.4917 55.1138 43.929 55.1138 41.4556V33.6263C55.1138 33.4026 55.2943 33.2221 55.518 33.2221H56.392C56.6157 33.2221 56.7963 33.4026 56.7963 33.6247V41.4764C56.7963 44.8446 54.9476 46.992 51.279 46.992C47.6089 46.992 45.7618 44.8238 45.7618 41.4955V33.6263C45.757 33.4026 45.9376 33.2237 46.1661 33.2237V33.2221ZM59.3735 43.8875C59.5014 43.7213 59.7506 43.7069 59.9008 43.8507C60.8068 44.7311 62.1617 45.4917 63.8794 45.4917C66.2921 45.4917 67.0638 44.1927 67.0638 43.1589C67.0638 41.5323 65.4228 41.0881 63.6365 40.6024C61.4683 40.032 59.0508 39.4264 59.0508 36.7676C59.0508 34.5355 61.0401 33.0144 63.7004 33.0144C65.6098 33.0144 67.1197 33.5992 68.2334 34.6282C68.3932 34.7736 68.4092 35.0228 68.2685 35.1874L67.7413 35.8345C67.6118 35.9943 67.3738 36.0055 67.2236 35.8665C66.2345 34.9397 64.9307 34.5147 63.5758 34.5147C61.9508 34.5147 60.7956 35.3903 60.7956 36.6622C60.7956 38.0235 62.3583 38.4278 64.0823 38.8927C66.2921 39.4839 68.807 40.171 68.807 43.0135C68.807 44.9788 67.4664 46.9872 63.8186 46.9872C61.6344 46.9872 59.9887 46.2171 58.8702 45.0986C58.7264 44.9548 58.7105 44.7215 58.8383 44.5601L59.3735 43.8891V43.8875ZM70.8107 33.6247C70.8107 33.401 70.9912 33.2221 71.2133 33.2221H75.4315C79.629 33.2221 82.3724 36.1621 82.3724 39.9968C82.3724 43.8507 79.6338 46.7491 75.4315 46.7491H71.2133C70.9912 46.7491 70.8107 46.5686 70.8107 46.3465V33.6247ZM75.4363 45.2488C78.723 45.2488 80.6276 42.8936 80.6276 39.9952C80.6276 37.0712 78.7805 34.7224 75.4363 34.7224H72.4963V45.2488H75.4363ZM99.2069 41.8439C99.2069 39.0014 101.076 36.7101 104.056 36.7101C107.036 36.7101 108.906 39.0014 108.906 41.8439C108.906 44.6848 107.036 46.9984 104.056 46.9984C101.075 46.9984 99.2069 44.68 99.2069 41.8439ZM107.301 41.8439C107.301 39.8562 106.146 38.0698 104.056 38.0698C101.965 38.0698 100.79 39.8562 100.79 41.8439C100.79 43.8507 101.965 45.6371 104.056 45.6371C106.146 45.6371 107.3 43.8507 107.3 41.8439H107.301ZM110.364 34.2766C110.364 33.7078 110.831 33.262 111.379 33.262C111.948 33.262 112.414 33.7078 112.414 34.2766C112.414 34.8471 111.948 35.312 111.379 35.312C110.831 35.312 110.364 34.8407 110.364 34.2766ZM111.032 36.953H111.742C111.964 36.953 112.144 37.1335 112.144 37.3556V46.3465C112.144 46.5686 111.964 46.7491 111.742 46.7491H111.032C110.809 46.7491 110.628 46.5686 110.628 46.3465V37.3556C110.628 37.1335 110.81 36.953 111.032 36.953ZM120.912 40.3419C120.912 38.6195 120.038 38.0698 118.723 38.0698C117.527 38.0698 116.39 38.8 115.819 39.5926V46.3465C115.819 46.5686 115.639 46.7491 115.415 46.7491H114.707C114.484 46.7491 114.303 46.5686 114.303 46.3465V37.3556C114.303 37.1335 114.484 36.953 114.707 36.953H115.415C115.639 36.953 115.819 37.1335 115.819 37.3556V38.3702C116.506 37.5585 117.849 36.7085 119.307 36.7085C121.357 36.7085 122.433 37.7439 122.433 39.8722V46.3401C122.433 46.5638 122.252 46.7444 122.03 46.7444H121.321C121.097 46.7444 120.916 46.5638 120.916 46.3401V40.3419H120.912ZM86.2167 39.9968C86.2167 35.8361 89.2813 33 93.1161 33C95.3882 33 96.9828 33.989 98.0581 35.3456C98.1923 35.515 98.146 35.769 97.9542 35.8777L97.1985 36.2963C97.0275 36.3953 96.8102 36.349 96.6872 36.1988C95.8835 35.205 94.5845 34.5051 93.1161 34.5051C90.2129 34.5051 87.9615 36.7788 87.9615 40.0016C87.9615 43.2068 90.2129 45.4981 93.1161 45.4981C94.5909 45.4981 95.8899 44.8158 96.6856 43.806C96.8102 43.651 97.0227 43.6095 97.1985 43.7021L97.9654 44.1223C98.162 44.231 98.2083 44.4898 98.0677 44.6608C96.9492 46.0269 95.3882 47 93.1145 47C89.2797 46.9936 86.2167 44.1575 86.2167 39.9968Z" fill="white"/>
<path d="M22 56C30.8366 56 38 48.8366 38 40C38 31.1634 30.8366 24 22 24C13.1634 24 6 31.1634 6 40C6 48.8366 13.1634 56 22 56Z" fill="#2775CA"/>
<path d="M19.0015 50.6887C19.0015 51.0645 18.7071 51.2795 18.3429 51.1652C13.5055 49.6212 9.99707 45.086 9.99707 39.7333C9.99707 34.3806 13.5035 29.8435 18.3429 28.2995C18.7071 28.1871 19.0015 28.4002 19.0015 28.778V29.706C19.0015 29.9578 18.8078 30.2523 18.5695 30.3337C14.7415 31.7382 11.9983 35.4151 11.9983 39.7275C11.9983 44.038 14.7415 47.7149 18.5695 49.1195C18.8078 49.2086 19.0015 49.4972 19.0015 49.7471V50.6887Z" fill="white"/>
<path d="M22.9982 47.2306C22.9982 47.5076 22.7735 47.7342 22.4964 47.7342H21.4987C21.2236 47.7342 20.997 47.5076 20.997 47.2306V45.6497C18.8137 45.3553 17.7462 44.1309 17.4576 42.4687C17.4072 42.1859 17.6339 41.9282 17.9225 41.9282H19.0655C19.3038 41.9282 19.5033 42.0987 19.5537 42.337C19.7668 43.3289 20.3383 44.0883 22.0896 44.0883C23.3818 44.0883 24.2981 43.3657 24.2981 42.2866C24.2981 41.2076 23.7576 40.7988 21.8629 40.4849C19.0655 40.1091 17.7404 39.2625 17.7404 37.0656C17.7404 35.3725 19.019 34.0551 21.0028 33.7723V32.2224C21.0028 31.9454 21.2295 31.7188 21.5065 31.7188H22.5022C22.7793 31.7188 23.0059 31.9454 23.0059 32.2224V33.8149C24.6178 34.1055 25.6406 35.0199 25.9739 36.5387C26.0359 36.8293 25.8092 37.0966 25.5147 37.0966H24.4628C24.2361 37.0966 24.0482 36.9475 23.9785 36.7286C23.6976 35.7599 23.0079 35.3473 21.8087 35.3473C20.4855 35.3473 19.7997 35.9866 19.7997 36.8835C19.7997 37.8328 20.1891 38.3094 22.2213 38.6038C24.9723 38.9797 26.3884 39.7643 26.3884 42.1045C26.3884 43.881 25.0711 45.3165 23.0079 45.6497V47.2306H22.9982Z" fill="white"/>
<path d="M25.66 51.1636C25.2958 51.2779 25.0013 51.0628 25.0013 50.687V49.7571C25.0013 49.482 25.1699 49.2243 25.4333 49.1313C29.2614 47.7249 32.0026 44.0479 32.0026 39.7375C32.0026 35.427 29.2614 31.7501 25.4353 30.3436C25.195 30.2564 25.0013 29.9678 25.0013 29.7159V28.788C25.0013 28.4121 25.2958 28.1913 25.66 28.3114C30.4974 29.8554 34.0039 34.3906 34.0039 39.7433C33.998 45.0844 30.4974 49.6137 25.66 51.1636Z" fill="white"/>
</svg>

<svg width="128" height="80" fill="none" xmlns="http://www.w3.org/2000/svg"><path d="M46.166 33.222h.874c.224 0 .404.18.404.403v7.829c0 2.475 1.34 4.038 3.835 4.038 2.494 0 3.835-1.563 3.835-4.036v-7.83c0-.223.18-.404.404-.404h.874c.224 0 .404.18.404.403v7.851c0 3.369-1.848 5.516-5.517 5.516-3.67 0-5.517-2.168-5.517-5.496v-7.87a.396.396 0 0 1 .404-.402v-.002zm13.208 10.666a.358.358 0 0 1 .527-.037c.906.88 2.26 1.64 3.978 1.64 2.413 0 3.185-1.298 3.185-2.332 0-1.627-1.641-2.07-3.427-2.557-2.169-.57-4.586-1.176-4.586-3.834 0-2.233 1.99-3.754 4.65-3.754 1.909 0 3.419.585 4.532 1.614.16.146.176.395.035.56l-.527.646a.356.356 0 0 1-.517.032c-.99-.926-2.293-1.351-3.648-1.351-1.625 0-2.78.875-2.78 2.147 0 1.361 1.562 1.766 3.286 2.23 2.21.592 4.725 1.279 4.725 4.121 0 1.966-1.34 3.974-4.988 3.974-2.185 0-3.83-.77-4.949-1.888a.407.407 0 0 1-.032-.539l.535-.67v-.002zM70.81 33.625c0-.224.18-.403.402-.403h4.219c4.197 0 6.94 2.94 6.94 6.775 0 3.854-2.738 6.752-6.94 6.752h-4.219a.403.403 0 0 1-.402-.403V33.626zm4.625 11.624c3.287 0 5.192-2.355 5.192-5.254 0-2.924-1.847-5.273-5.192-5.273h-2.94V45.25h2.94zm23.77-3.405c0-2.843 1.87-5.134 4.85-5.134 2.98 0 4.85 2.291 4.85 5.134 0 2.84-1.87 5.154-4.85 5.154-2.981 0-4.85-2.318-4.85-5.154zm8.095 0c0-1.988-1.155-3.774-3.245-3.774-2.091 0-3.266 1.786-3.266 3.774 0 2.007 1.175 3.793 3.266 3.793 2.09 0 3.244-1.786 3.244-3.793h.001zm3.063-7.567c0-.57.467-1.015 1.015-1.015.569 0 1.035.446 1.035 1.015 0 .57-.466 1.035-1.035 1.035-.548 0-1.015-.471-1.015-1.035zm.668 2.676h.71c.222 0 .402.18.402.403v8.99c0 .223-.18.403-.402.403h-.71a.404.404 0 0 1-.404-.403v-8.99c0-.223.182-.403.404-.403zm9.88 3.389c0-1.722-.874-2.272-2.189-2.272-1.196 0-2.333.73-2.904 1.523v6.753c0 .223-.18.403-.404.403h-.708a.404.404 0 0 1-.404-.403v-8.99c0-.223.181-.403.404-.403h.708c.224 0 .404.18.404.403v1.014c.687-.811 2.03-1.661 3.488-1.661 2.05 0 3.126 1.035 3.126 3.163v6.468a.404.404 0 0 1-.403.404h-.709a.404.404 0 0 1-.405-.404v-5.998h-.004zm-34.695-.345c0-4.16 3.064-6.997 6.9-6.997 2.271 0 3.866.989 4.941 2.346a.358.358 0 0 1-.104.532l-.755.418a.403.403 0 0 1-.512-.097 4.62 4.62 0 0 0-3.57-1.694c-2.904 0-5.156 2.274-5.156 5.497 0 3.205 2.252 5.496 5.155 5.496 1.475 0 2.774-.682 3.57-1.692a.408.408 0 0 1 .512-.104l.767.42a.356.356 0 0 1 .103.539C96.949 46.027 95.388 47 93.115 47c-3.835-.006-6.898-2.843-6.898-7.003z" fill="#fff"/><path d="M22 56c8.837 0 16-7.163 16-16s-7.163-16-16-16S6 31.163 6 40s7.163 16 16 16z" fill="#2775CA"/><path d="M19.002 50.689c0 .376-.295.59-.66.476-4.836-1.544-8.345-6.079-8.345-11.432 0-5.352 3.507-9.89 8.346-11.433.364-.113.659.1.659.478v.928c0 .252-.194.546-.432.628-3.829 1.404-6.572 5.081-6.572 9.393 0 4.311 2.744 7.988 6.572 9.393.238.089.431.377.431.627v.942z" fill="#fff"/><path d="M22.998 47.23a.503.503 0 0 1-.502.504H21.5a.505.505 0 0 1-.502-.503V45.65c-2.183-.295-3.25-1.52-3.54-3.181a.467.467 0 0 1 .465-.54h1.143c.239 0 .438.17.489.408.213.992.784 1.751 2.536 1.751 1.292 0 2.208-.722 2.208-1.801 0-1.08-.54-1.488-2.435-1.802-2.797-.376-4.123-1.222-4.123-3.42 0-1.692 1.279-3.01 3.263-3.293v-1.55c0-.277.227-.503.503-.503h.996c.277 0 .504.226.504.503v1.593c1.612.29 2.635 1.205 2.968 2.724a.465.465 0 0 1-.46.558h-1.051a.508.508 0 0 1-.485-.368c-.28-.97-.97-1.382-2.17-1.382-1.323 0-2.008.64-2.008 1.536 0 .95.39 1.426 2.421 1.72 2.751.377 4.167 1.161 4.167 3.502 0 1.776-1.317 3.212-3.38 3.545v1.58h-.01z" fill="#fff"/><path d="M25.66 51.164c-.364.114-.659-.101-.659-.477v-.93c0-.275.169-.533.432-.626 3.828-1.406 6.57-5.083 6.57-9.394 0-4.31-2.742-7.987-6.568-9.393-.24-.088-.434-.376-.434-.628v-.928c0-.376.295-.597.659-.477 4.837 1.544 8.344 6.08 8.344 11.432-.006 5.341-3.507 9.87-8.344 11.42z" fill="#fff"/></svg>
